X: 499
T: Cripple Creek
C:Bill Monroe solo, yikes!
B: jims roots
M:4/4
L:1/8
Q: 1/4=100
K:A
V:1 
%N:Mike Stangeland
%Q:530
x ee | "A"eaaf efec | "D"ddfd "A"e2ee | eaaf ecBA | "E"=cBAF "A"A3e |
"A"aaaf efec | "D"ddfd "A"e2ee | cBAc BAFD | "E"EFAB "A"A2aa ||
"A"abaf efed | "D"cdef "A"eaaa | abaf efed | "E"cABA "A"Aaaa |
"A"abaf eczc | "D"defd "A"e2ee | cBAc BAFD | "E"EFAB "A"A2AA ||
"A"[eB][ec]z[ec] [ec][ec]z[ec] | [ec][ec][ec][ec] z[ec][ec][ec] | Bcze cBAF | EFAB A2AA |
"A"Bccc cccA | "D"cccA "A"EFAF | AB=cB cBAF | "E"EFAA "A"zAAB ||
"A"cccc cccc | "D"BccA "A"EFA2 | AB=cB cBAF | "E"EFAA "A"zaaa |
"A"abaf efec | "D"aefd "A"eaaa | abaf efed | "E"cABA "A"Aaaa ||
"A"abaf efec | "D"defd "A"e2ee | cBAc BAFD | "E"EFAB "A"A2AA |
"A"=cBAA cAcB | "D"A=cBA cBAA | =cBAc BAFD | "E"EFAB "A"A2AA |
"A"=cBAc BAcB | "D"A=cBA cBA2 | =cBAc BAFD | "E"EFAB "A"A4 ||
% abcbook-tune_id 6298c24504104d78e943e19f


% abcbook-boost 0
% abcbook-tablature 
% abcbook-transpose 
% abcbook-lastupdated 1654178373862
% abcbook-soundfonts 
% abcbook-repeats 1


